svgs/solid/seal-question.svg

<svg xmlns="http://www.w3.org/2000/svg" viewBox="0 0 512 512"><!--! Font Awesome Pro 6.2.0 by @fontawesome - https://fontawesome.com License - https://fontawesome.com/license (Commercial License) Copyright 2022 Fonticons, Inc. --><path d="M222.1 17.9c18.7-18.7 49.1-18.7 67.9 0L336 64h64c26.5 0 48 21.5 48 48v64l45.6 45.6c18.7 18.7 18.7 49.1 0 67.9L448 335.1V400c0 26.5-21.5 48-48 48H335.1l-45.1 45.1c-18.7 18.7-49.1 18.7-67.9 0L176.9 448H112c-26.5 0-48-21.5-48-48V335.1L18.4 289.5c-18.7-18.7-18.7-49.1 0-67.9L64 176V112c0-26.5 21.5-48 48-48h64l46.1-46.1zM169.8 165.3l-.4 1.2c-4.4 12.5 2.1 26.2 14.6 30.6s26.2-2.1 30.6-14.6l.4-1.2c1.1-3.2 4.2-5.3 7.5-5.3h58.3c8.4 0 15.1 6.8 15.1 15.1c0 5.4-2.9 10.4-7.6 13.1l-44.3 25.4c-7.5 4.3-12.1 12.2-12.1 20.8V264c0 13.3 10.7 24 24 24c13.1 0 23.8-10.5 24-23.6l32.3-18.5c19.6-11.3 31.7-32.2 31.7-54.8c0-34.9-28.3-63.1-63.1-63.1H222.6c-23.7 0-44.8 14.9-52.8 37.3zM288 352c0-17.7-14.3-32-32-32s-32 14.3-32 32s14.3 32 32 32s32-14.3 32-32z"/></svg>

<svg xmlns="http://www.w3.org/2000/svg" viewBox="0 0 512 512"><!--! Font Awesome Pro 6.1.2 by @fontawesome - https://fontawesome.com License - https://fontawesome.com/license (Commercial License) Copyright 2022 Fonticons, Inc. --><path d="M222.1 17.94C240.8-.8035 271.2-.8035 289.9 17.94L336 64H400C426.5 64 448 85.49 448 112V176L493.6 221.6C512.3 240.3 512.3 270.7 493.6 289.5L448 335.1V400C448 426.5 426.5 448 400 448H335.1L289.9 493.1C271.2 511.9 240.8 511.9 222.1 493.1L176.9 448H112C85.49 448 64 426.5 64 400V335.1L18.41 289.5C-.3328 270.7-.3328 240.3 18.41 221.6L64 176V112C64 85.49 85.49 64 112 64H175.1L222.1 17.94zM169.4 166.5C164.9 179 171.5 192.7 183.1 197.2C196.5 201.6 210.2 195.1 214.6 182.6L215.1 181.3C216.2 178.1 219.2 176 222.6 176H280.9C289.2 176 296 182.8 296 191.1C296 196.6 293.1 201.6 288.4 204.3L244.1 229.7C236.6 234 232 241.9 232 250.5V264C232 277.3 242.7 288 256 288C269.1 288 279.8 277.5 279.1 264.4L312.3 245.9C331.9 234.7 344 213.8 344 191.1C344 156.3 315.7 128 280.9 128H222.6C198.9 128 177.8 142.9 169.8 165.3L169.4 166.5zM256 320C238.3 320 224 334.3 224 352C224 369.7 238.3 384 256 384C273.7 384 288 369.7 288 352C288 334.3 273.7 320 256 320z"/></svg>
